src/components/Pass/assets/pass.svg

<svg width="48" height="48" viewBox="0 0 48 48" fill="none" xmlns="http://www.w3.org/2000/svg">
<path d="M48 24C48 10.7452 37.2548 0 24 0C10.7452 0 0 10.7452 0 24C0 37.2548 10.7452 48 24 48C37.2548 48 48 37.2548 48 24Z" fill="#15B312"/>
<path fill-rule="evenodd" clip-rule="evenodd" d="M21.2476 30.8482L33.2476 18.8482L31.5508 17.1514L20.3992 28.303L15.2476 23.1514L13.5508 24.8482L19.5508 30.8482C19.7753 31.074 20.0807 31.201 20.3992 31.201C20.7177 31.201 21.023 31.074 21.2476 30.8482Z" fill="white"/>
</svg>

<svg width="48" height="48" fill="none" xmlns="http://www.w3.org/2000/svg">
  <path d="M48 24C48 10.745 37.255 0 24 0S0 10.745 0 24s10.745 24 24 24 24-10.745 24-24Z" fill="#15B312"/>
  <path fill-rule="evenodd" clip-rule="evenodd" d="m21.248 30.848 12-12-1.697-1.697-11.152 11.152-5.151-5.152-1.697 1.697 6 6a1.196 1.196 0 0 0 1.697 0Z" fill="#fff"/>
</svg>
